public/library/venly-nft-api-icon-light.svg

<svg xmlns="http://www.w3.org/2000/svg" width="1080" height="1080" fill="none" viewBox="0 0 1080 1080"><path fill="url(#a)" d="M0 0h1080v1080H0z"/><path fill="#fff" d="m834.167 474.367-73.595 27.952c-3.094 1.126-6.094-1.876-4.782-4.971l82.033-199.14c1.219-3.002-1.688-6.097-4.688-4.971l-155.908 54.592c-3 1.032-5.438 3.377-6.657 6.378L564.913 620.884c-1.313 3.377 1.969 6.754 5.344 5.534l66-24.2c3.657-1.314 7.032 2.626 5.063 6.097l-96.939 164.621c-2.062 3.564-7.312 3.564-9.375 0l-96.939-164.715c-1.969-3.377 1.313-7.41 5.063-6.097l66.001 24.2c3.375 1.22 6.656-2.157 5.344-5.534L408.723 354.207c-1.219-3.001-3.563-5.253-6.656-6.378l-155.721-54.592c-3.094-1.032-5.907 1.969-4.688 4.971l81.939 199.14c1.219 3.002-1.781 6.097-4.782 4.971l-73.126-27.952c-3.75-1.407-7.125 2.626-5.062 6.097l217.69 360.571c2.157 3.565 6.001 5.722 10.219 5.722h142.69c4.125 0 8.062-2.157 10.219-5.722L839.51 480.464c1.782-3.471-1.593-7.504-5.343-6.097"/><defs><linearGradient id="a" x1="435.874" x2="1146.57" y1="0" y2="178.471" gradientUnits="userSpaceOnUse"><stop stop-color="#7735e8"/><stop offset="1" stop-color="#c62cf1"/></linearGradient></defs></svg>

<svg width="1080" height="1080" viewBox="0 0 1080 1080" fill="none" xmlns="http://www.w3.org/2000/svg">
<rect width="1080" height="1080" fill="url(#paint0_linear)"/>
<path d="M834.167 474.367L760.572 502.319C757.478 503.445 754.478 500.443 755.79 497.348L837.823 298.208C839.042 295.206 836.135 292.111 833.135 293.237L677.227 347.829C674.227 348.861 671.789 351.206 670.57 354.207L564.913 620.884C563.6 624.261 566.882 627.638 570.257 626.418L636.257 602.218C639.914 600.904 643.289 604.844 641.32 608.315L544.381 772.936C542.319 776.5 537.069 776.5 535.006 772.936L438.067 608.221C436.098 604.844 439.38 600.811 443.13 602.124L509.131 626.324C512.506 627.544 515.787 624.167 514.475 620.79L408.723 354.207C407.504 351.206 405.16 348.954 402.067 347.829L246.346 293.237C243.252 292.205 240.439 295.206 241.658 298.208L323.597 497.348C324.816 500.35 321.816 503.445 318.815 502.319L245.689 474.367C241.939 472.96 238.564 476.993 240.627 480.464L458.317 841.035C460.474 844.6 464.318 846.757 468.536 846.757H611.226C615.351 846.757 619.288 844.6 621.445 841.035L839.51 480.464C841.292 476.993 837.917 472.96 834.167 474.367Z" fill="white"/>
<defs>
<linearGradient id="paint0_linear" x1="435.874" y1="-3.23691e-05" x2="1146.57" y2="178.471" gradientUnits="userSpaceOnUse">
<stop stop-color="#7735E8"/>
<stop offset="1" stop-color="#C62CF1"/>
</linearGradient>
</defs>
</svg>
